_includes/icons/color-new-zealand.svg

<svg fill="#666" height="50" viewBox="0 0 48 48" width="50" xmlns="http://www.w3.org/2000/svg"><path d="m2 9h44v30h-44z" fill="#3f51b5"/><path d="m22 11.199219-4.398437 2.800781h4.398437v4h-3.800781l3.800781 2.398438v2.601562h-1l-7-4.300781v4.300781h-4v-4.101562l-6.5 4.101562h-1.5v-2.300781l4.300781-2.699219h-4.300781v-4h4.898438l-4.898438-3v-2h2.101563l5.898437 3.699219v-3.699219h4v4l6.398438-4h1.601562zm9.339844 13.097656 2.167969-1.914062-2.878907-.277344-1.152343-2.652344-1.152344 2.652344-2.878906.277344 2.164062 1.914062-.625 2.824219 2.492188-1.46875 2.492187 1.46875zm5.289062 5.808594-1.152343-2.65625-1.152344 2.65625-2.878906.273437 2.164062 1.917969-.625 2.820313 2.492188-1.464844 2.492187 1.464844-.628906-2.820313 2.167969-1.917969zm-3.644531-9.984375 2.492188-1.46875 2.492187 1.46875-.628906-2.824219 2.167969-1.914062-2.878907-.277344-1.15625-2.652344-1.148437 2.652344-2.878906.277344 2.164062 1.914062zm11.523438 1.261719-2.878907-.277344-1.152343-2.652344-1.152344 2.652344-2.878906.277344 2.167968 1.914062-.628906 2.824219 2.492188-1.46875 2.492187 1.46875-.628906-2.820313z" fill="#fff"/><path d="m17.300781 18 4.699219 2.898438v1.101562l-6.398437-4zm-7.800781-4-7.5-4.699219v1.097657l5.699219 3.601562zm-7.5 8.300781v.699219h.601563l7.398437-4.601562v-.398438h-1.101562zm19.199219-13.300781-7.199219 4.5v.5h1l7-4.398437v-.601563zm-8.199219 0h-2v6h-9v2h9v6h2v-6h9v-2h-9zm16.476563 12.960938.46875 1.085937 1.175781.109375-.882813.785156.253907 1.152344-1.015625-.601562-1.015625.601562.253906-1.152344-.882813-.785156 1.175782-.109375zm6 8 .46875 1.085937 1.175781.109375-.882813.785156.253907 1.152344-1.015625-.601562-1.015625.601562.253906-1.152344-.882813-.785156 1.175782-.109375zm0-15 .46875 1.085937 1.175781.109375-.882813.785156.253907 1.152344-1.015625-.601562-1.015625.601562.253906-1.152344-.882813-.785156 1.175782-.109375zm5 6 .46875 1.085937 1.175781.109375-.882813.785156.253907 1.152344-1.015625-.601562-1.015625.601562.253906-1.152344-.882813-.785156 1.175782-.109375z" fill="#e53935"/></svg>

<svg xmlns="http://www.w3.org/2000/svg" viewBox="0 0 48 48" width="50" height="50" fill="#666"><path d="M 2 9 L 46 9 L 46 39 L 2 39 Z" fill="#3f51b5"/><path d="M 22 11.199219 L 17.601563 14 L 22 14 L 22 18 L 18.199219 18 L 22 20.398438 L 22 23 L 21 23 L 14 18.699219 L 14 23 L 10 23 L 10 18.898438 L 3.5 23 L 2 23 L 2 20.699219 L 6.300781 18 L 2 18 L 2 14 L 6.898438 14 L 2 11 L 2 9 L 4.101563 9 L 10 12.699219 L 10 9 L 14 9 L 14 13 L 20.398438 9 L 22 9 Z M 31.339844 24.296875 L 33.507813 22.382813 L 30.628906 22.105469 L 29.476563 19.453125 L 28.324219 22.105469 L 25.445313 22.382813 L 27.609375 24.296875 L 26.984375 27.121094 L 29.476563 25.652344 L 31.96875 27.121094 Z M 36.628906 30.105469 L 35.476563 27.449219 L 34.324219 30.105469 L 31.445313 30.378906 L 33.609375 32.296875 L 32.984375 35.117188 L 35.476563 33.652344 L 37.96875 35.117188 L 37.339844 32.296875 L 39.507813 30.378906 Z M 32.984375 20.121094 L 35.476563 18.652344 L 37.96875 20.121094 L 37.339844 17.296875 L 39.507813 15.382813 L 36.628906 15.105469 L 35.472656 12.453125 L 34.324219 15.105469 L 31.445313 15.382813 L 33.609375 17.296875 Z M 44.507813 21.382813 L 41.628906 21.105469 L 40.476563 18.453125 L 39.324219 21.105469 L 36.445313 21.382813 L 38.613281 23.296875 L 37.984375 26.121094 L 40.476563 24.652344 L 42.96875 26.121094 L 42.339844 23.300781 Z" fill="#fff"/><path d="M 17.300781 18 L 22 20.898438 L 22 22 L 15.601563 18 Z M 9.5 14 L 2 9.300781 L 2 10.398438 L 7.699219 14 Z M 2 22.300781 L 2 23 L 2.601563 23 L 10 18.398438 L 10 18 L 8.898438 18 Z M 21.199219 9 L 14 13.5 L 14 14 L 15 14 L 22 9.601563 L 22 9 Z M 13 9 L 11 9 L 11 15 L 2 15 L 2 17 L 11 17 L 11 23 L 13 23 L 13 17 L 22 17 L 22 15 L 13 15 Z M 29.476563 21.960938 L 29.945313 23.046875 L 31.121094 23.15625 L 30.238281 23.941406 L 30.492188 25.09375 L 29.476563 24.492188 L 28.460938 25.09375 L 28.714844 23.941406 L 27.832031 23.15625 L 29.007813 23.046875 Z M 35.476563 29.960938 L 35.945313 31.046875 L 37.121094 31.15625 L 36.238281 31.941406 L 36.492188 33.09375 L 35.476563 32.492188 L 34.460938 33.09375 L 34.714844 31.941406 L 33.832031 31.15625 L 35.007813 31.046875 Z M 35.476563 14.960938 L 35.945313 16.046875 L 37.121094 16.15625 L 36.238281 16.941406 L 36.492188 18.09375 L 35.476563 17.492188 L 34.460938 18.09375 L 34.714844 16.941406 L 33.832031 16.15625 L 35.007813 16.046875 Z M 40.476563 20.960938 L 40.945313 22.046875 L 42.121094 22.15625 L 41.238281 22.941406 L 41.492188 24.09375 L 40.476563 23.492188 L 39.460938 24.09375 L 39.714844 22.941406 L 38.832031 22.15625 L 40.007813 22.046875 Z" fill="#e53935"/></svg>
